X:1
T:Benedicamus Domino - Warlock
T:#
%%score [ ( 1 2 ) ( 3 4 ) ( 5 6 ) 7 ]
L:1/8
Q:1/4=90
M:2/4
K:C
V:1 treble nm="Soprano"
V:2 treble 
V:3 treble nm="Alto"
V:4 treble 
V:5 treble-8 nm="Tenor"
V:6 treble-8 
V:7 bass nm="Bass"
V:1
"^Benedicamus Domino""^Peter Warlock\n(1894-1930)" z4 | z4 |!mf! A>G Ac | d>c A2 | z4 | z4 | %6
w: ||E- ya, no- bis|an- nus est!|||
!f! A>A D2 | c2 F2 | ed cd |[M:3/4] Bc AA ce | [dg]2 c2 z2 |[M:2/4] z4 | z4 |!mf! A>G Ac | d>c A2 | %15
w: Glo- ri- a!|Lau- des!|De- us ho- mo|fac- tus est et im- mor-|ta- lis.|||E- ya, no- bis|an- nus est!|
!mp! G>A GE | D>E G2 |!f! A>A D2 | c2 F2 | ed cd |[M:3/4] Bc AA ce | [dg]2 c2 z2 |[M:2/4] CD EG | %23
w: Na- tus est de|vir- gi- ne.|Glo- ri- a!|Lau- des!|De- us ho- mo|fac- tus est et im- mor-|ta- lis.|Si- ne vi- ri|
 A>G E2 | A>G!<(! A!<)!c |!>(! d>c!>)! A2 |!mp! G>A G!<(!E | D>E!<)! G2 |!f! A>A D2 | c2 F2 | %30
w: co- pi- a|E- ya, no- bis|an- nus est!|Na- tus est ex|Ma- ri- a|Glo- ri- a!|Lau- des!|
[M:2/4] ed cd |[M:3/4] Bc AA ce | g2 G2 !fermata!z"^risoluto"!f! G |[M:2/4] cd GG | cd G2 | %35
w: De- us ho- mo|fac- tus est et im- mor-|ta- lis. In|hoc fes- to de-|ter- mi- no|
 A>G Ac | [Fd][Ec]"^," [FA]G |"^rit."[Q:1/4=88] c>[Q:1/4=86]d[Q:1/4=85]!<(! e[Q:1/4=84]g | %38
w: E- ya no- bis|an- nus est! Be-|ne- di- ca- mus|
[Q:1/4=82] [ea]!<)![Q:1/4=80][dg][Q:1/4=80] !fermata![Ge]2 |"^a tempo"[Q:1/4=90] [ca]>[ca] [Fd]2 | %40
w: Do- mi- no!|Glo- ri- a!|
 [dg]2 [Gc]2 |!ff! ed [Bc][Ad] x2 |[M:3/4] Bc AA[Q:1/4=89] c[Q:1/4=87]e |"^rit."[Q:1/4=80] [dg]6 | %44
w: Lau- des!|De- us ho- mo|fac- tus est et im- mor-|ta-|
[Q:1/4=76] !fermata![ce]4 z2 |] %45
w: lis.|
V:2
 x4 | x4 | x4 | x4 | x4 | x4 | x4 | x4 | x4 |[M:3/4] x6 | x6 |[M:2/4] x4 | x4 | x4 | x4 | x4 | x4 | %17
 x4 | x4 | x4 |[M:3/4] x6 | x6 |[M:2/4] x4 | x4 | x4 | x4 | x4 | x4 | x4 | x4 |[M:2/4] x4 | %31
[M:3/4] x6 | x6 |[M:2/4] x4 | x4 | x4 | x4 | x4 | x4 | x4 | x4 | c>c x2 x2 |[M:3/4] G>G x4 | x6 | %44
 x6 |] %45
V:3
!mf! CD EG | A>G E2 | E>D EA | A>G (FE) |!mp! G>A GE | D>E G2 |!f! E>E A,2 | G2 C2 | c>c BA | %9
w: Pro- ce- den- ti|pu- e- ro|E- ya, no- bis|an- nus est! *|Vir- gi- nis ex|u- te- ro|Glo- ri- a!|Lau- des!|De- us ho- mo|
[M:3/4] G>G FE AA | A2 G2 z2 |[M:2/4] z4 | z4 |!mf! E>D EA | A>G ^F2 |!mp! D>!courtesy!=F EC | %16
w: fac- tus est et im- mor-|ta- lis.|||E- ya, no- bis|an- nus est!|Na- tus est de|
 A,>A, C2 |!f! E>E A,2 | G2 C2 | c>c BA |[M:3/4] G>G FE AA | A2 G2 z2 |[M:2/4] A,B, CB, | C>D C2 | %24
w: vir- gi- ne.|Glo- ri- a!|Lau- des!|De- us ho- mo|fac- tus est et im- mor-|ta- lis.|Si- ne vi- ri|co- pi- a|
 D>B,!<(! ^F!<)!G |!>(! A>G!>)! ^F2 |!mp! D>D E!<(!C | C>B,!<)! (CD) |!f! E>E A,2 | G2 C2 | %30
w: E- ya, no- bis|an- nus est!|Na- tus est ex|Ma- ri- a *|Glo- ri- a!|Lau- des!|
[M:2/4] c>c BA |[M:3/4] G>G FE AA | [Ad]2 G2 !fermata!z"^risoluto"!f! G |[M:2/4] [CE]F DD | GF D2 | %35
w: De- us ho- mo|fac- tus est et im- mor-|ta- lis. In|hoc fes- to de-|ter- mi- no|
 C>C F^F | AG"^," FD |"^rit." [EG]>G!<(! GG | [Ac]!<)![GB] !fermata![Ec]2 | %39
w: E- ya no- bis|an- nus est! Be-|ne- di- ca- mus|Do- mi- no!|
"^a tempo" [Ae]>[Ae] [DA]2 | [GB]2 E2 |[M:3/4]!ff! GF ED z2 |[M:3/4] DC FE AA |"^rit." [FA]6 | %44
w: Glo- ri- a!|Lau- des!|De- us ho- mo|fac- tus est et im- mor-|ta-|
 !fermata![EG]4 z2 |] %45
w: lis.|
V:4
 x4 | x4 | x4 | x4 | x4 | x4 | x4 | x4 | x4 |[M:3/4] x6 | x6 |[M:2/4] x4 | x4 | x4 | x4 | x4 | x4 | %17
 x4 | x4 | x4 |[M:3/4] x6 | x6 |[M:2/4] x4 | x4 | x4 | x4 | x4 | x4 | x4 | x4 |[M:2/4] x4 | %31
[M:3/4] x6 | x6 |[M:2/4] x4 | x4 | x4 | x4 | x2 cc | x4 | x4 | x4 |[M:3/4] x6 |[M:3/4] x6 | x6 | %44
 x6 |] %45
V:5
 z4 | z4 |!mf! c>B ce | d>e (fe) |!mp! d>e dB | A>B d2 |!f! c>c F2 | e2 A2 | gf ed | %9
w: ||E- ya, no- bis|an- nus est! *|Vir- gi- nis ex|u- te- ro.|Glo- ri- a!|Lau- des!|De- us ho- mo|
[M:3/4] dc cc ec | f2 [ce]2 z2 |[M:2/4] z4 | z4 |!mf! c>B ce | d>e d2 |!mp! B>c BG | F>F E2 | %17
w: fac- tus est et im- mor-|ta- lis.|||E- ya, no- bis|an- nus est!|Na- tus est de|vir- gi- ne.|
!f! c>c F2 | e2 A2 | gf ed |[M:3/4] dc cc ec | f2 [ce]2 z2 |[M:2/4][K:treble-8] z4 | z4 | %24
w: Glo- ri- a!|Lau- des!|De- us ho- mo|fac- tus est et im- mor-|ta- lis.|||
 ^f>e!<(! d!<)!e |!>(! ^f>e!>)! (d>c) |!mp! B>A B!<(!c | A>G!<)! (AG) |!f! c>c F2 | e2 A2 | %30
w: E- ya, no- bis|an- nus est! *|Na- tus est ex|Ma- ri- a *|Glo- ri- a!|Lau- des!|
[M:2/4][K:treble-8] gf ed |[M:3/4] dc cc ec | f2 d2 !fermata!z"^risoluto"!f! G |[M:2/4] GA BB | %34
w: De- us ho- mo|fac- tus est et im- mor-|ta- lis. In|hoc fes- to de-|
 _BA =B2 | c>B cA | B_B"^," A=B |"^rit." c>d!<(! e[ce] | [ce]!<)![Bd] !fermata![_Bd]2 | %39
w: ter- mi- no|E- ya no- bis|an- nus est! Be-|ne- di- ca- mus|Do- mi- no!|
"^a tempo" [Ae]>[Ae] [Ad]2 | [Bd]2 [Gc]2 |!fff! c/c/c cc z2 |[M:3/4] !>!g>c cc ec |"^rit." d6 | %44
w: Glo- ri- a!|Lau- des!|Be- ne- di- ca- mus|Do- mi- no, be- ne- di-|ca-|
 !fermata![ce]4 z2 |] %45
w: mus.|
V:6
 x4 | x4 | x4 | x4 | x4 | x4 | x4 | x4 | x4 |[M:3/4] x6 | cB x2 z2 |[M:2/4] x4 | x4 | x4 | x4 | %15
 x4 | x4 | x4 | x4 | x4 |[M:3/4] x6 | cB x2 z2 |[M:2/4][K:treble-8] x4 | x4 | x4 | x4 | x4 | x4 | %28
 x4 | x4 |[M:2/4][K:treble-8] x4 |[M:3/4] x6 | c2 B2 x2 |[M:2/4] x4 | x4 | x4 | x4 | x4 | x4 | x4 | %40
 x4 | x6 |[M:3/4] x4 x2 | (c4 B2) | x4 x2 |] %45
V:7
 z4 | z4 |!mf! A,>E, A,G, | F,>A, (DC) |!mp! B,>C B,G, | F,>G, B,2 |!f! A,>A, C,2 | A,2 E,2 | %8
w: ||E- ya, no- bis|an- nus est! *|Vir- gi- nis ex|u- te- ro.|Glo- ri- a!|Lau- des!|
 B,A, G,F, |[M:3/4] E,>E, F,A, G,F, | G,2 C,2 z2 |[M:2/4]!mf! C,D, E,G, | A,>G, E,2 | %13
w: De- us ho- mo|fac- tus est et im- mor-|ta- lis.|Si- ne vi- ri|se- mi- ne|
!mf! A,>E, A,G, | F,>A, D2 |!mp! E,>D, C,A,, | B,,>C, A,,2 |!f! G,>G, C,2 | A,2 E,2 | B,A, G,F, | %20
w: E- ya, no- bis|an- nus est!|Na- tus est de|vir- gi- ne.|Glo- ri- a!|Lau- des!|De- us ho- mo|
[M:3/4] E,>E, F,A, G,F, | G,2 C,!p! (C,2 B,, |[M:2/4] [A,,E,]4- | [A,,E,]4 | [A,,D,]4 | [A,,D,]4) | %26
w: fac- tus est et im- mor-|ta- lis. Ah, *|||||
!mp! E,>F, G,!<(!A, | F,>E,!<)! (D,E,) |!f! F,>F, C,2 | A,2 E,2 |[M:2/4] B,A, G,F, | %31
w: Na- tus est ex|Ma- ri- a *|Glo- ri- a!|Lau- des!|De- us ho- mo|
[M:3/4] E,>E, F,A, G,F, | G,2 G,2 !fermata!z"^risoluto"!f! G, |[M:2/4] E,F, G,F, | E,D, E,2 | %35
w: fac- tus est et im- mor-|ta- lis. In|hoc fes- to de-|ter- mi- no|
 F,>E, _E,D, | ^C,=C,"^," [F,,C,]F, |"^rit." E,>G,!<(! CB, | A,>!<)!A, !fermata!C,2 | %39
w: E- ya no- bis|an- nus est! Be-|ne- di- ca- mus|Do- mi- no!|
"^a tempo" [F,C]>[F,C] [B,,F,]2 | E,2 [A,,E,]2 |!ff! B,A, G,F, z2 |[M:3/4] E,>E, F,A, G,^F, | %43
w: Glo- ri- a!|Lau- des!|De- us ho- mo|fac- tus est et im- mor-|
"^rit." G,6 | !fermata![C,G,]4 z2 |] %45
w: ta-|lis.|

